omega/mobile/images/sports/quasar-bevo.svg

<svg enable-background="new 0 0 512 512" height="512" viewBox="0 0 512 512" width="512" xmlns="http://www.w3.org/2000/svg"><path d="m256 46.066c-115.943 0-209.934 93.991-209.934 209.934s93.991 209.934 209.934 209.934 209.935-93.99 209.935-209.934c0-115.943-93.992-209.934-209.935-209.934m-181.88 209.934c0-3.71.125-7.393.344-11.048 88.312 105.074 174.274 105.338 203.997 102.032.06 4.017-.027 7.938-.234 11.737-1.958.109-3.951.229-6.004.357-41.393 2.601-109.204 6.828-198.086-101.697-.004-.46-.017-.918-.017-1.381m279.828-153.278c4.751 3.041 9.346 6.303 13.78 9.759-129.174-13.88-186.121 80.925-200.611 110.498-3.467-1.772-6.947-3.678-10.427-5.728 19.17-35.368 70.86-121.819 197.258-114.529m-38.769 83.554c-23.736 16.268-53.352 40.767-64.792 60.111-3.644-.255-8.925-.759-15.413-1.745 40.452-78.772 111.585-99.7 155.967-110.585 3.03 3.351 5.935 6.817 8.712 10.388-24.961 6.78-54.634 21.38-84.474 41.831m-123.597 67.206c27.455 9.073 50.262 11.209 59.735 11.712 3.523 4.649 6.621 9.372 9.349 14.14-103.854-3.281-155.151-57.83-175.16-86.791 1.231-3.311 2.56-6.571 3.977-9.787 25.271 32.594 60.266 56.899 102.099 70.726m103.208 126.269c5.215-33.394 4.395-81.608-27.753-124.76 7.541-12.032 28.471-32.56 58.714-53.288 4.102-2.81 8.189-5.496 12.252-8.063 20.775 36.53 53.234 105.314 6.015 221.548-19.998 11.082-42.303 18.504-66.017 21.364 6.73-15.069 13.352-34.796 16.789-56.801m54.408-192.911c4.89-2.846 9.72-5.491 14.473-7.937 25.263 41.226 46.765 113.178 5.11 219.79-2.04 1.614-4.119 3.181-6.229 4.709 40.178-112.338 7.505-180.009-13.354-216.562m50.653-23.036c3.866-1.181 7.604-2.156 11.195-2.92 17.015 27.674 26.835 60.247 26.835 95.116 0 22.679-4.164 44.382-11.747 64.403 6.691-54.077 7.17-112.015-26.283-156.599m-143.851-89.684c26.006 0 50.731 5.47 73.105 15.304-45.979 1.858-86.372 16.37-120.495 43.386-33.818 26.773-53.298 59.645-62.995 77.41-16.678-11.409-32.871-26.396-46.621-46.067 31.577-53.861 90.063-90.033 157.006-90.033m-180.388 205.273c34.849 39.699 69.63 66.26 105.591 80.724 26.3 10.577 49.15 12.968 68.21 12.968 8.671 0 16.559-.494 23.627-.939 1.369-.085 2.691-.168 3.973-.244-.217 1.688-.449 3.35-.701 4.965-4.033 25.821-12.617 47.479-19.665 61.007-.215.001-.431.009-.647.009-92.523-.002-168.908-69.09-180.388-158.49"/></svg>

<?xml version="1.0" encoding="utf-8"?>
<!-- Generator: Adobe Illustrator 14.0.0, SVG Export Plug-In . SVG Version: 6.00 Build 43363)  -->
<!DOCTYPE svg PUBLIC "-//W3C//DTD SVG 1.1//EN" "http://www.w3.org/Graphics/SVG/1.1/DTD/svg11.dtd">
<svg version="1.1" xmlns="http://www.w3.org/2000/svg" xmlns:xlink="http://www.w3.org/1999/xlink" x="0px" y="0px" width="512px"
	 height="512px" viewBox="0 0 512 512" enable-background="new 0 0 512 512" xml:space="preserve">
<g id="Layer_1">
</g>
<g id="amfb">
	<path d="M256,46.066C140.057,46.066,46.066,140.057,46.066,256c0,115.943,93.991,209.934,209.934,209.934
		c115.943,0,209.935-93.99,209.935-209.934C465.935,140.057,371.943,46.066,256,46.066 M74.12,256c0-3.71,0.125-7.393,0.344-11.048
		c88.312,105.074,174.274,105.338,203.997,102.032c0.06,4.017-0.027,7.938-0.234,11.737c-1.958,0.109-3.951,0.229-6.004,0.357
		c-41.393,2.601-109.204,6.828-198.086-101.697C74.133,256.921,74.12,256.463,74.12,256 M353.948,102.722
		c4.751,3.041,9.346,6.303,13.78,9.759c-129.174-13.88-186.121,80.925-200.611,110.498c-3.467-1.772-6.947-3.678-10.427-5.728
		C175.86,181.883,227.55,95.432,353.948,102.722 M315.179,186.276c-23.736,16.268-53.352,40.767-64.792,60.111
		c-3.644-0.255-8.925-0.759-15.413-1.745c40.452-78.772,111.585-99.7,155.967-110.585c3.03,3.351,5.935,6.817,8.712,10.388
		C374.692,151.225,345.019,165.825,315.179,186.276 M191.582,253.482c27.455,9.073,50.262,11.209,59.735,11.712
		c3.523,4.649,6.621,9.372,9.349,14.14c-103.854-3.281-155.151-57.83-175.16-86.791c1.231-3.311,2.56-6.571,3.977-9.787
		C114.754,215.35,149.749,239.655,191.582,253.482 M294.79,379.751c5.215-33.394,4.395-81.608-27.753-124.76
		c7.541-12.032,28.471-32.56,58.714-53.288c4.102-2.81,8.189-5.496,12.252-8.063c20.775,36.53,53.234,105.314,6.015,221.548
		c-19.998,11.082-42.303,18.504-66.017,21.364C284.731,421.483,291.353,401.756,294.79,379.751 M349.198,186.84
		c4.89-2.846,9.72-5.491,14.473-7.937c25.263,41.226,46.765,113.178,5.11,219.79c-2.04,1.614-4.119,3.181-6.229,4.709
		C402.73,291.064,370.057,223.393,349.198,186.84 M399.851,163.804c3.866-1.181,7.604-2.156,11.195-2.92
		c17.015,27.674,26.835,60.247,26.835,95.116c0,22.679-4.164,44.382-11.747,64.403C432.825,266.326,433.304,208.388,399.851,163.804
		 M256,74.12c26.006,0,50.731,5.47,73.105,15.304c-45.979,1.858-86.372,16.37-120.495,43.386
		c-33.818,26.773-53.298,59.645-62.995,77.41c-16.678-11.409-32.871-26.396-46.621-46.067C130.571,110.292,189.057,74.12,256,74.12
		 M75.612,279.393c34.849,39.699,69.63,66.26,105.591,80.724c26.3,10.577,49.15,12.968,68.21,12.968
		c8.671,0,16.559-0.494,23.627-0.939c1.369-0.085,2.691-0.168,3.973-0.244c-0.217,1.688-0.449,3.35-0.701,4.965
		c-4.033,25.821-12.617,47.479-19.665,61.007c-0.215,0.001-0.431,0.009-0.647,0.009C163.477,437.881,87.092,368.793,75.612,279.393"
		/>
</g>
</svg>
